X: 726
T: Aidan Cuffe's
R: reel
M: 4/4
K: Amixolydian
|:cded cA A2|Bcdc BG G2|cded cA A2|fage d2 ed|
cded cA A2|Bcdc BG G2|cded cA A2|dfeg fagf||
|:ge e2 fage|fd d2 fagf|ge e2 fage|fedc dfaf|
ge e2 fage|fd d2 fagf|ge e2 fage|1 fage d3f:|2 fage d2 ed||

